#src/img/common/phone.svg

<svg width="24" height="24" fill="none" xmlns="http://www.w3.org/2000/svg"><path d="M6.54 5c.06.89.21 1.76.45 2.59l-1.2 1.2c-.41-1.2-.67-2.47-.76-3.79h1.51zm9.86 12.02c.85.24 1.72.39 2.6.45v1.49c-1.32-.09-2.59-.35-3.8-.75l1.2-1.19zM7.5 3H4c-.55 0-1 .45-1 1 0 9.39 7.61 17 17 17 .55 0 1-.45 1-1v-3.49c0-.55-.45-1-1-1-1.24 0-2.45-.2-3.57-.57a.84.84 0 00-.31-.05c-.26 0-.51.1-.71.29l-2.2 2.2a15.149 15.149 0 01-6.59-6.59l2.2-2.2c.28-.28.36-.67.25-1.02A11.36 11.36 0 018.5 4c0-.55-.45-1-1-1z" fill="#CC2830"/></svg>

<svg width="24" height="24" viewBox="0 0 24 24" fill="none" xmlns="http://www.w3.org/2000/svg">
  <path d="M6.54 5C6.6 5.89 6.75 6.76 6.99 7.59L5.79 8.79C5.38 7.59 5.12 6.32 5.03 5H6.54ZM16.4 17.02C17.25 17.26 18.12 17.41 19 17.47V18.96C17.68 18.87 16.41 18.61 15.2 18.21L16.4 17.02ZM7.5 3H4C3.45 3 3 3.45 3 4C3 13.39 10.61 21 20 21C20.55 21 21 20.55 21 20V16.51C21 15.96 20.55 15.51 20 15.51C18.76 15.51 17.55 15.31 16.43 14.94C16.33 14.9 16.22 14.89 16.12 14.89C15.86 14.89 15.61 14.99 15.41 15.18L13.21 17.38C10.38 15.93 8.06 13.62 6.62 10.79L8.82 8.59C9.1 8.31 9.18 7.92 9.07 7.57C8.7 6.45 8.5 5.25 8.5 4C8.5 3.45 8.05 3 7.5 3Z" fill="#CC2830"/>
</svg>
